data/playwrite-hu.svg

<svg width="106.39" height="25.34" viewBox="0 0 106.39 25.34" xmlns="http://www.w3.org/2000/svg"><path transform="translate(0 19.068) scale(.014 -.014)" d="m433 360q-17-1-25 10.5t-8 26.5q0 16 5.5 26.5t21.5 11.5q62 2 114 15.5t93 37 69 56 43 72.5 15 86q0 45-18.5 78.5t-54 56-85 33-110.5 10.5q-79 0-146-15t-121.5-45.5-97.5-75.5q-13-14-26.5-16.5t-28.5 8.5q-16 14-18 27.5t10 27.5q34 42 79.5 73.5t101 53 119.5 32.5 136 11q85 0 150.5-17.5t110.5-50 68-81 23-110.5q0-58-19-108.5t-55-92-87.5-71.5-116.5-48-142-22zm-235-377q-43 0-76 16t-54.5 37.5-30.5 34.5q-12 17-11 31.5t18 24.5q18 11 30 7.5t27-17.5q14-15 28-26t31.5-17 40.5-6q36 0 52.5 28.5t16.5 91.5v575q0 14 11 20.5t33 6.5 33-6.5 11-20.5v-581q0-59-17.5-104t-52.5-70-90-25z"/><path transform="translate(12.362 19.068) scale(.014 -.014)" d="m-57-17q-19 0-28 11.5t-9 26 9 26 28 11.5q30 0 59 14t57.5 39.5 54 61.5 49 80 43.5 94 36.5 105 27.5 113 17 117 6 116q0 14 13 22t30 8 30-8 13-22q0-56-7.5-116.5t-21.5-122-34-122-45-117.5-54-108-61.5-92.5-67.5-72.5-71.5-47.5-73.5-16.5zm278 0q-26 0-45 7t-30.5 20-17 32.5-5.5 43.5v690q0 96 32 142.5t98 46.5q43 0 71-18.5t41.5-55.5 13.5-93q0-19-13-28t-30-9-30 9-13 28q0 30-4.5 49t-13.5 28.5-23 9.5-24-10-14.5-33.5-4.5-65.5v-680q0-13 4-21.5t11-12.5 16-4 16.5 3 14.5 8.5 14 10.5q8 7 18 2.5t17-12.5q8-10 8.5-20t-4.5-19q-11-15-28-26t-36-16.5-39-5.5z"/><path transform="translate(17.878 19.068) scale(.014 -.014)" d="m258-17q-57 0-101 27.5t-69 83.5-25 141q0 52 9.5 96t28.5 79 46 59 62 37 77 13q32 0 66-10.5t64-27.5v5q0 15 11 22t33 7 32.5-6.5 10.5-20.5v-392q0-13 4-21.5t11-12.5 16-4q10 0 16.5 2.5t13 7.5 15.5 12q7 6 16 3.5t18-10.5q9-10 10-21t-4-19q-11-16-28-27t-36.5-17-39.5-6q-23 0-40 5t-29 15.5-18.5 25.5-9.5 34q0 1-1 4.5t-1 7.5q-23-37-49.5-57t-54.5-27.5-54-7.5zm-107 256q0-55 13-94.5t39.5-60.5 66.5-21q29 0 55.5 10t49.5 33 41 60v242q-31 19-60 25.5t-61 6.5q-26 0-48-8t-40-24-30.5-40-19-56-6.5-73z"/><path transform="translate(26.586 19.068) scale(.014 -.014)" d="m493 3q16 9 32 18t31 17 28 14.5 23 10.5q16 7 26.5 0t15-20 0.5-26.5-19-21.5q-13-6-29.5-15t-34-19-35.5-20-35-20zm-172-468q-45 0-79 16t-53 46.5-19 72.5q0 30 10.5 61t31.5 61.5 52 61 74 59.5q25 15 49 30.5t48 31.5v102q-13-22-30.5-39.5t-38.5-29.5-45.5-18.5-51.5-6.5q-58 0-97 20.5t-58.5 61-19.5 101.5v323q0 13 10.5 19.5t31.5 6.5q22 0 33-6.5t11-19.5v-323q0-35 11-59t33.5-36 55.5-12q28 0 52 9t43.5 24.5 34.5 37.5 25 47v312q0 13 10.5 19.5t32.5 6.5q21 0 32-6.5t11-19.5v-689q0-63-14-112.5t-40.5-83.5-63.5-51.5-82-17.5zm5 78q26 0 46 12t34 35.5 21.5 59.5 7.5 82v86q-21-13-42-25.5t-42-25.5q-21-17-38.5-36t-29.5-39.5-18-41.5-6-42 7.5-35.5 22.5-22 37-7.5z"/><path transform="translate(35.546 19.068) scale(.014 -.014)" d="m248-17q-36 0-64.5 11.5t-48.5 34.5-30.5 57-10.5 80v323q0 13 10.5 19.5t32.5 6.5q21 0 32-6.5t11-19.5v-323q0-35 8.5-59t27-36 47.5-12q26 0 46 9t35 24.5 26 37 18 46.5v313q0 12 10.5 19t31.5 7q24 0 34-7t10-19v-278q0-46 4-75t13.5-45.5 26-23 40.5-6.5q20 0 39.5 6t37 19.5 31 35.5 21.5 52.5 8 71.5q0 38-5.5 75t-17 72.5-30.5 67.5q-11 18-6 31t19 20 29 7q14 0 21-6t14-18q15-23 29.5-59.5t24.5-82.5 10-98q0-42-10-82.5t-29-75-47.5-60.5-65.5-41-83-15q-33 0-61 10.5t-48.5 33-33.5 56.5q-16-30-40-52t-53.5-34-63.5-12z"/><path transform="translate(47.544 19.068) scale(.014 -.014)" d="m161-15q-21 0-31.5 6.5t-10.5 19.5v358q0 42-13 56.5t-36 14.5q-17 0-28.5-9t-18-26-8.5-40q-1-16-9-23.5t-26-7.5q-16 0-26 7t-9 33q2 43 17.5 74.5t43 49 64.5 17.5q27 0 49-6t38-19 26.5-32 15.5-45l1-5q11 26 26 46.5t32 35 35.5 22 36.5 7.5q14 0 24.5-7t10.5-31q0-28 5.5-47t16-28.5 24.5-9.5q25 0 52 23t52 51q9 10 20 7.5t20.5-12.5 12.5-21.5-4-19.5q-33-40-73-68t-80-28q-27 0-50.5 12t-39 36-20.5 58q-15-6-28.5-19t-26-31.5-23-42-18.5-49.5v-281q0-13-11-19.5t-33-6.5z"/><path transform="translate(55.258 19.068) scale(.014 -.014)" d="m193-17q-52 0-75.5 27t-23.5 76v403q0 13 10.5 19.5t31.5 6.5q22 0 33-6.5t11-19.5v-393q0-20 9-29t22-9q11 0 18.5 3.5t14 8.5 14.5 11q6 5 16.5 1t16.5-12q8-9 9-19t-5-18q-11-16-27.5-27t-36-17-38.5-6zm-55 686q-28 0-42.5 15.5t-14.5 46.5q0 32 14.5 48t42.5 16q27 0 41-16t14-48q1-31-13.5-46.5t-41.5-15.5z"/><path transform="translate(59.458 19.068) scale(.014 -.014)" d="m243-17q-42 0-69.5 15.5t-41 44-13.5 68.5v309h-78q-15 0-21 9t-6 31q0 23 6 31.5t21 8.5h78v204q0 13 10.5 19.5t31.5 6.5q22 0 33-6.5t11-19.5v-204h126q15 0 21.5-8.5t6.5-31.5q0-22-6.5-31t-21.5-9h-126v-299q0-34 9.5-48.5t34.5-14.5q23 0 39.5 11t34.5 27q12 11 22.5 7.5t19.5-12.5q11-10 11.5-20.5t-5.5-19.5q-17-25-38-40t-44-21.5-46-6.5z"/><path transform="translate(64.89 19.068) scale(.014 -.014)" d="m293-19q-79 0-130 34t-75.5 90-24.5 123 18.5 120.5 52.5 91.5 80.5 58.5 101.5 20.5q49 0 85.5-14.5t57-44 20.5-74.5q0-38-16.5-69t-46.5-54.5-71-39-92-23.5-108-9v70q33 0 67.5 4.5t66.5 13.5 57 23.5 39.5 33.5 14.5 43q0 32-21.5 46t-57.5 14q-33 0-61.5-13t-51-38.5-35-61.5-12.5-82q0-55 17.5-96t49.5-64 77-23q30 0 51 7.5t39.5 23 40.5 37.5q15 15 27.5 15t26.5-11 17-23.5-7-25.5q-25-38-59-60.5t-69.5-32.5-68.5-10z"/><path transform="translate(76.454 19.068) scale(.014 -.014)" d="m242-17q-46 0-78 22.5t-49 59.5-17 79q0 37 12 71.5t36.5 66.5 62.5 60.5 91 53.5v407q0 37-15.5 56t-43.5 19q-22 0-44-9.5t-42.5-29-41.5-51.5q-10-15-22-17t-28 8q-17 11-17 23.5t10 27.5q25 39 53 68.5t62.5 46.5 76.5 17q70 0 105-41t35-118v-370q58 28 114.5 55.5t113.5 56.5 112 57v133q0 75 15.5 125.5t48 76 84.5 25.5q45 0 76.5-21t49-56 17.5-78q0-35-11-68t-35-63.5-63-59.5-95-57v-371q0-41 8.5-68t27-39.5 49.5-12.5q20 0 38.5 5t34 15.5 26.5 24.5q11 17 23 21t29-7q18-11 17-23.5t-13-31.5q-11-19-34-40t-53.5-35-68.5-14q-45 0-77.5 14.5t-53 41-30.5 63.5-10 81v328q-38-21-80.5-42.5t-86.5-43-88-42.5-85-40v-133q0-75-15-125.5t-47-76-84-25.5zm0 78q32 0 45 30t13 109v108q-29-13-51-30.5t-35.5-38-21-44.5-7.5-51q0-36 16.5-59.5t40.5-23.5zm573 586q31 16 53.5 33t36 36 20 41.5 6.5 49.5q0 31-15.5 54t-39.5 23q-32 0-46.5-30t-14.5-109z"/><path transform="translate(91.882 19.068) scale(.014 -.014)" d="m504-17q-78 0-134.5 30.5t-86.5 94-30 162.5v533q0 37-13.5 56t-42.5 19q-22 0-42-9.5t-39.5-30-40.5-52.5q-9-15-23-16.5t-30 9.5q-17 10-18 23t8 28q25 39 53.5 68.5t62.5 46.5 76 17q71 0 104-41t33-118v-525q0-74 19.5-120.5t57-68 92.5-21.5q30 0 57.5 6t52 19 45.5 31 37.5 41.5 27.5 51.5v714q0 14 11 21t33 7q21 0 32-7t11-21v-767q0-32 7-53t20.5-32 33.5-11q24 0 41 12t32 33q12 17 23.5 21t29.5-7 19.5-25-9.5-30q-12-21-27.5-37.5t-33.5-28.5-38-17.5-42-5.5q-38 0-66 13.5t-45.5 40.5-25.5 66q0 2-0.5 3.5t-0.5 3.5q-18-30-42-54t-53-40.5-63.5-24.5-72.5-8z"/></svg>

<?xml version="1.0" encoding="utf-8" ?>
<svg baseProfile="tiny" height="100%" version="1.2" width="100%" xmlns="http://www.w3.org/2000/svg" xmlns:ev="http://www.w3.org/2001/xml-events" xmlns:xlink="http://www.w3.org/1999/xlink"><defs /><g><path d="M433 360Q416 359 408.0 370.5Q400 382 400 397Q400 413 405.5 423.5Q411 434 427 435Q489 437 541.0 450.5Q593 464 634.0 487.5Q675 511 703.0 543.5Q731 576 746.0 616.0Q761 656 761 702Q761 747 742.5 780.5Q724 814 688.5 836.5Q653 859 603.5 869.5Q554 880 493 880Q414 880 347.0 865.0Q280 850 225.5 819.5Q171 789 128 744Q115 730 101.5 727.5Q88 725 73 736Q57 750 55.0 763.5Q53 777 65 791Q99 833 144.5 864.5Q190 896 245.5 917.5Q301 939 365.0 950.0Q429 961 501 961Q586 961 651.5 943.5Q717 926 762.0 893.5Q807 861 830.0 812.5Q853 764 853 702Q853 644 834.0 593.5Q815 543 779.0 501.5Q743 460 691.5 430.0Q640 400 575.0 382.0Q510 364 433 360ZM198 -17Q155 -17 122.0 -1.0Q89 15 67.5 36.5Q46 58 37 71Q25 88 26.0 102.5Q27 117 44 127Q62 138 74.0 134.5Q86 131 101 117Q115 102 129.0 91.0Q143 80 160.5 74.0Q178 68 201 68Q237 68 253.5 96.5Q270 125 270 188V763Q270 777 281.0 783.5Q292 790 314 790Q336 790 347.0 783.5Q358 777 358 763V182Q358 123 340.5 78.0Q323 33 288.0 8.0Q253 -17 198 -17Z" transform="translate(0.0, 72) scale(0.072, -0.072)" /><path d="M-57 -17Q-76 -17 -85.0 -5.5Q-94 6 -94.0 20.5Q-94 35 -85.0 46.5Q-76 58 -57 58Q-27 58 2.0 72.0Q31 86 59.5 111.5Q88 137 113.5 173.0Q139 209 162.5 253.0Q186 297 206.0 347.0Q226 397 242.5 452.0Q259 507 270.0 565.0Q281 623 287.0 682.0Q293 741 293 798Q293 812 306.0 820.0Q319 828 336.0 828.0Q353 828 366.0 820.0Q379 812 379 798Q379 742 371.5 681.5Q364 621 350.0 559.5Q336 498 316.0 437.5Q296 377 271.0 320.0Q246 263 217.0 212.0Q188 161 155.5 119.5Q123 78 88.0 47.0Q53 16 16.5 -0.5Q-20 -17 -57 -17ZM221 -17Q195 -17 176.0 -10.0Q157 -3 145.5 10.0Q134 23 128.5 42.5Q123 62 123 86V776Q123 872 155.0 918.5Q187 965 253 965Q296 965 324.0 946.5Q352 928 365.5 891.0Q379 854 379 798Q379 779 366.0 770.0Q353 761 336.0 761.0Q319 761 306.0 770.0Q293 779 293 798Q293 828 288.5 847.0Q284 866 275.0 875.5Q266 885 252 885Q238 885 228.0 875.0Q218 865 213.5 841.5Q209 818 209 776V96Q209 83 213.0 74.5Q217 66 224.0 62.0Q231 58 240 58Q249 58 256.5 61.0Q264 64 271.0 69.5Q278 75 285 80Q293 87 303.0 82.5Q313 78 320 70Q328 60 328.5 50.0Q329 40 324 31Q313 16 296.0 5.0Q279 -6 260.0 -11.5Q241 -17 221 -17Z" transform="translate(63.57599999999999, 72) scale(0.072, -0.072)" /><path d="M258 -17Q201 -17 157.0 10.5Q113 38 88.0 94.0Q63 150 63 235Q63 287 72.5 331.0Q82 375 101.0 410.0Q120 445 147.0 469.0Q174 493 209.0 506.0Q244 519 286 519Q318 519 352.0 508.5Q386 498 416 481V486Q416 501 427.0 508.0Q438 515 460 515Q482 515 492.5 508.5Q503 502 503 488V96Q503 83 507.0 74.5Q511 66 518.0 62.0Q525 58 534 58Q544 58 550.5 60.5Q557 63 563.5 68.0Q570 73 579 80Q586 86 595.0 83.5Q604 81 613 73Q622 63 623.0 52.0Q624 41 619 33Q608 17 591.0 6.0Q574 -5 554.5 -11.0Q535 -17 515 -17Q492 -17 475.0 -12.0Q458 -7 446.0 3.5Q434 14 427.5 29.0Q421 44 418 63Q418 64 417.0 67.5Q416 71 416 75Q393 38 366.5 18.0Q340 -2 312.0 -9.5Q284 -17 258 -17ZM151 239Q151 184 164.0 144.5Q177 105 203.5 84.0Q230 63 270 63Q299 63 325.5 73.0Q352 83 375.0 106.0Q398 129 416 166V408Q385 427 356.0 433.5Q327 440 295 440Q269 440 247.0 432.0Q225 424 207.0 408.0Q189 392 176.5 368.0Q164 344 157.5 312.0Q151 280 151 239Z" transform="translate(91.94399999999999, 72) scale(0.072, -0.072)" /><path d="M493 3Q509 12 525.0 21.0Q541 30 556.0 38.0Q571 46 584.0 52.5Q597 59 607 63Q623 70 633.5 63.0Q644 56 648.5 43.0Q653 30 649.0 16.5Q645 3 630 -5Q617 -11 600.5 -20.0Q584 -29 566.5 -39.0Q549 -49 531.0 -59.0Q513 -69 496 -79ZM321 -465Q276 -465 242.0 -449.0Q208 -433 189.0 -402.5Q170 -372 170 -330Q170 -300 180.5 -269.0Q191 -238 212.0 -207.5Q233 -177 264.0 -146.5Q295 -116 338 -87Q363 -72 387.0 -56.5Q411 -41 435 -25V77Q422 55 404.5 37.5Q387 20 366.0 8.0Q345 -4 320.5 -10.5Q296 -17 269 -17Q211 -17 172.0 3.5Q133 24 113.5 64.5Q94 105 94 166V489Q94 502 104.5 508.5Q115 515 136 515Q158 515 169.0 508.5Q180 502 180 489V166Q180 131 191.0 107.0Q202 83 224.5 71.0Q247 59 280 59Q308 59 332.0 68.0Q356 77 375.5 92.5Q395 108 410.0 130.0Q425 152 435 177V489Q435 502 445.5 508.5Q456 515 478 515Q499 515 510.0 508.5Q521 502 521 489V-200Q521 -263 507.0 -312.5Q493 -362 466.5 -396.0Q440 -430 403.0 -447.5Q366 -465 321 -465ZM326 -387Q352 -387 372.0 -375.0Q392 -363 406.0 -339.5Q420 -316 427.5 -280.0Q435 -244 435 -198V-112Q414 -125 393.0 -137.5Q372 -150 351 -163Q330 -180 312.5 -199.0Q295 -218 283.0 -238.5Q271 -259 265.0 -280.0Q259 -301 259 -322Q259 -343 266.5 -357.5Q274 -372 289.0 -379.5Q304 -387 326 -387Z" transform="translate(136.72799999999998, 72) scale(0.072, -0.072)" /><path d="M248 -17Q212 -17 183.5 -5.5Q155 6 135.0 29.0Q115 52 104.5 86.0Q94 120 94 166V489Q94 502 104.5 508.5Q115 515 137 515Q158 515 169.0 508.5Q180 502 180 489V166Q180 131 188.5 107.0Q197 83 215.5 71.0Q234 59 263 59Q289 59 309.0 68.0Q329 77 344.0 92.5Q359 108 370.0 129.5Q381 151 388 176V489Q388 501 398.5 508.0Q409 515 430 515Q454 515 464.0 508.0Q474 501 474 489V211Q474 165 478.0 136.0Q482 107 491.5 90.5Q501 74 517.5 67.5Q534 61 558 61Q578 61 597.5 67.0Q617 73 634.5 86.5Q652 100 665.5 122.0Q679 144 687.0 174.5Q695 205 695 246Q695 284 689.5 321.0Q684 358 672.5 393.5Q661 429 642 461Q631 479 636.0 492.0Q641 505 655.0 512.0Q669 519 684 519Q698 519 705.0 513.0Q712 507 719 495Q734 472 748.5 435.5Q763 399 773.0 353.0Q783 307 783 255Q783 213 773.0 172.5Q763 132 744.0 97.5Q725 63 696.5 37.0Q668 11 631.0 -4.0Q594 -19 548 -19Q515 -19 487.0 -8.5Q459 2 438.5 24.5Q418 47 405 81Q389 51 365.0 29.0Q341 7 311.5 -5.0Q282 -17 248 -17Z" transform="translate(182.808, 72) scale(0.072, -0.072)" /><path d="M161 -15Q140 -15 129.5 -8.5Q119 -2 119 11V369Q119 411 106.0 425.5Q93 440 70 440Q53 440 41.5 431.0Q30 422 23.5 405.0Q17 388 15 365Q14 349 6.0 341.5Q-2 334 -20 334Q-36 334 -46.0 341.0Q-56 348 -55 374Q-53 417 -37.5 448.5Q-22 480 5.5 497.5Q33 515 70 515Q97 515 119.0 509.0Q141 503 157.0 490.0Q173 477 183.5 458.0Q194 439 199 413L200 408Q211 434 226.0 454.5Q241 475 258.0 489.5Q275 504 293.5 511.5Q312 519 330 519Q344 519 354.5 512.0Q365 505 365 481Q365 453 370.5 434.0Q376 415 386.5 405.5Q397 396 411 396Q436 396 463.0 419.0Q490 442 515 470Q524 480 535.0 477.5Q546 475 555.5 465.0Q565 455 568.0 443.5Q571 432 564 424Q531 384 491.0 356.0Q451 328 411 328Q384 328 360.5 340.0Q337 352 321.5 376.0Q306 400 301 434Q286 428 272.5 415.0Q259 402 246.5 383.5Q234 365 223.5 341.5Q213 318 205 292V11Q205 -2 194.0 -8.5Q183 -15 161 -15Z" transform="translate(244.512, 72) scale(0.072, -0.072)" /><path d="M193 -17Q141 -17 117.5 10.0Q94 37 94 86V489Q94 502 104.5 508.5Q115 515 136 515Q158 515 169.0 508.5Q180 502 180 489V96Q180 76 189.0 67.0Q198 58 211 58Q222 58 229.5 61.5Q237 65 243.5 70.0Q250 75 258 81Q264 86 274.5 82.0Q285 78 291 70Q299 61 300.0 51.0Q301 41 295 33Q284 17 267.5 6.0Q251 -5 231.5 -11.0Q212 -17 193 -17ZM138 669Q110 669 95.5 684.5Q81 700 81 731Q81 763 95.5 779.0Q110 795 138 795Q165 795 179.0 779.0Q193 763 193 731Q194 700 179.5 684.5Q165 669 138 669Z" transform="translate(284.18399999999997, 72) scale(0.072, -0.072)" /><path d="M243 -17Q201 -17 173.5 -1.5Q146 14 132.5 42.5Q119 71 119 111V420H41Q26 420 20.0 429.0Q14 438 14 460Q14 483 20.0 491.5Q26 500 41 500H119V704Q119 717 129.5 723.5Q140 730 161 730Q183 730 194.0 723.5Q205 717 205 704V500H331Q346 500 352.5 491.5Q359 483 359 460Q359 438 352.5 429.0Q346 420 331 420H205V121Q205 87 214.5 72.5Q224 58 249 58Q272 58 288.5 69.0Q305 80 323 96Q335 107 345.5 103.5Q356 100 365 91Q376 81 376.5 70.5Q377 60 371 51Q354 26 333.0 11.0Q312 -4 289.0 -10.5Q266 -17 243 -17Z" transform="translate(305.784, 72) scale(0.072, -0.072)" /><path d="M293 -19Q214 -19 163.0 15.0Q112 49 87.5 105.0Q63 161 63 228Q63 295 81.5 348.5Q100 402 134.0 440.0Q168 478 214.5 498.5Q261 519 316 519Q365 519 401.5 504.5Q438 490 458.5 460.5Q479 431 479 386Q479 348 462.5 317.0Q446 286 416.0 262.5Q386 239 345.0 223.5Q304 208 253.0 200.0Q202 192 145 191V261Q178 261 212.5 265.5Q247 270 279.0 279.0Q311 288 336.0 302.5Q361 317 375.5 336.0Q390 355 390 379Q390 411 368.5 425.0Q347 439 311 439Q278 439 249.5 426.0Q221 413 198.5 387.5Q176 362 163.5 326.0Q151 290 151 244Q151 189 168.5 148.0Q186 107 218.0 84.0Q250 61 295 61Q325 61 346.0 68.5Q367 76 385.5 91.5Q404 107 426 129Q441 144 453.5 144.0Q466 144 480 133Q494 122 497.0 109.5Q500 97 490 84Q465 46 431.0 23.5Q397 1 361.5 -9.0Q326 -19 293 -19Z" transform="translate(333.71999999999997, 72) scale(0.072, -0.072)" /><path d="M242 -17Q196 -17 164.0 5.5Q132 28 115.0 65.0Q98 102 98 144Q98 181 110.0 215.5Q122 250 146.5 282.0Q171 314 209.0 342.5Q247 371 300 396V803Q300 840 284.5 859.0Q269 878 241 878Q219 878 197.0 868.5Q175 859 154.5 839.5Q134 820 113 788Q103 773 91.0 771.0Q79 769 63 779Q46 790 46.0 802.5Q46 815 56 830Q81 869 109.0 898.5Q137 928 171.5 945.0Q206 962 248 962Q318 962 353.0 921.0Q388 880 388 803V433Q446 461 502.5 488.5Q559 516 616.0 545.0Q673 574 728 602V735Q728 810 743.5 860.5Q759 911 791.5 936.5Q824 962 876 962Q921 962 952.5 941.0Q984 920 1001.5 885.0Q1019 850 1019 807Q1019 772 1008.0 739.0Q997 706 973.0 675.5Q949 645 910.0 616.0Q871 587 815 559V188Q815 147 823.5 120.0Q832 93 850.5 80.5Q869 68 900 68Q920 68 938.5 73.0Q957 78 972.5 88.5Q988 99 999 113Q1010 130 1022.0 134.0Q1034 138 1051 127Q1069 116 1068.0 103.5Q1067 91 1055 72Q1044 53 1021.0 32.0Q998 11 967.5 -3.0Q937 -17 899 -17Q854 -17 821.5 -2.5Q789 12 768.5 38.5Q748 65 738.0 102.0Q728 139 728 183V511Q690 490 647.5 468.5Q605 447 561.0 425.5Q517 404 473.0 383.0Q429 362 388 343V210Q388 135 373.0 84.5Q358 34 326.0 8.5Q294 -17 242 -17ZM242 61Q274 61 287.0 91.0Q300 121 300 200V308Q271 295 249.0 277.5Q227 260 213.5 239.5Q200 219 192.5 195.0Q185 171 185 144Q185 108 201.5 84.5Q218 61 242 61ZM815 647Q846 663 868.5 680.0Q891 697 904.5 716.0Q918 735 924.5 757.5Q931 780 931 807Q931 838 915.5 861.0Q900 884 876 884Q844 884 829.5 854.0Q815 824 815 745Z" transform="translate(393.192, 72) scale(0.072, -0.072)" /><path d="M504 -17Q426 -17 369.5 13.5Q313 44 283.0 107.5Q253 171 253 270V803Q253 840 239.5 859.0Q226 878 197 878Q175 878 155.0 868.5Q135 859 115.5 838.5Q96 818 75 786Q66 771 52.0 769.5Q38 768 22 779Q5 789 4.0 802.0Q3 815 12 830Q37 869 65.5 898.5Q94 928 128.0 945.0Q162 962 204 962Q275 962 308.0 921.0Q341 880 341 803V278Q341 204 360.5 157.5Q380 111 417.5 89.5Q455 68 510 68Q540 68 567.5 74.0Q595 80 619.5 93.0Q644 106 665.0 124.0Q686 142 702.5 165.5Q719 189 730 217V931Q730 945 741.0 952.0Q752 959 774 959Q795 959 806.0 952.0Q817 945 817 931V164Q817 132 824.0 111.0Q831 90 844.5 79.0Q858 68 878 68Q902 68 919.0 80.0Q936 92 951 113Q963 130 974.5 134.0Q986 138 1004 127Q1022 116 1023.5 102.0Q1025 88 1014 72Q1002 51 986.5 34.5Q971 18 953.0 6.0Q935 -6 915.0 -11.5Q895 -17 873 -17Q835 -17 807.0 -3.5Q779 10 761.5 37.0Q744 64 736 103Q736 105 735.5 106.5Q735 108 735 110Q717 80 693.0 56.0Q669 32 640.0 15.5Q611 -1 576.5 -9.0Q542 -17 504 -17Z" transform="translate(472.536, 72) scale(0.072, -0.072)" /></g></svg>
